Papirus-Dark/22x22/actions/institution-edit.svg

<svg xmlns="http://www.w3.org/2000/svg" width="22" height="22" version="1.1">
 <defs>
  <style id="current-color-scheme" type="text/css">
   .ColorScheme-Text { color:#dfdfdf; } .ColorScheme-Highlight { color:#4285f4; }
  </style>
 </defs>
 <path style="fill:currentColor" class="ColorScheme-Text" d="M 11.007812,3 C 10.841504,3.00989 10.67618,3.1128756 10.408203,3.2734375 L 7.5,5.015625 4.6015625,6.7519531 C 3.9633645,7.1101681 4.049715,6.9484752 4,7.6347656 V 8.8925781 C 4,8.9521561 4.0380375,9 4.0859375,9 H 5 V 9.4277344 16.572266 17 H 4.7675781 C 4.3425911,17 4,17.378053 4,17.847656 V 19 h 9 V 18.25 L 16.617188,14.630859 17,14.248047 V 9.4277344 9 h 0.914062 C 17.961962,9 18,8.952156 18,8.8925781 V 7.6621094 C 17.9986,6.9382548 17.98313,7.1026425 17.375,6.7382812 L 14.5,5.015625 11.607422,3.2832031 C 11.339759,3.0735795 11.174122,2.9901146 11.007812,3 Z M 7,10 h 3 v 6 H 7 Z m 5,0 h 3 v 6 h -3 z"/>
 <path style="fill:currentColor" class="ColorScheme-Text" d="m 18.805711,14 c -0.09101,0 -0.182726,0.03479 -0.253395,0.105469 l -0.697201,0.703125 1.335814,1.335937 0.703061,-0.697265 c 0.141347,-0.141352 0.141347,-0.364012 0,-0.505372 L 19.057642,14.105469 C 18.986972,14.034789 18.896725,14 18.805711,14 Z M 17.32489,15.338867 14,18.664063 V 20 h 1.335814 l 3.324891,-3.325195 z"/>
</svg>

<svg xmlns="http://www.w3.org/2000/svg" width="22" height="22" version="1.1">
 <defs>
  <style id="current-color-scheme" type="text/css">
   .ColorScheme-Text { color:#dfdfdf; } .ColorScheme-Highlight { color:#4285f4; }
  </style>
 </defs>
 <path style="fill:currentColor" class="ColorScheme-Text" d="M 11,3 C 10.811,3 10.4,3.2734 10.4,3.2734 L 4.6016,6.752 C 3.9634,7.1102 4.0497,6.9485 4,7.6348 V 9 H 5 V 17 H 4.7676 C 4.3426,17 4,17.378 4,17.848 V 19 H 13 V 18.25 L 17,14.248 V 9 H 18 V 7.6621 C 18,6.9383 17.983,7.1026 17.375,6.7383 L 11.6,3.273 C 11.6,3.273 11.189,3 11,3 Z M 7,10 H 10 V 16 H 7 Z M 12,10 H 15 V 16 H 12 Z"/>
 <path style="fill:currentColor" class="ColorScheme-Text" d="M 18.806,14 C 18.715,14 18.623,14.035 18.552,14.105 L 17.855,14.809 19.191,16.145 19.894,15.447 C 20.035,15.306 20.035,15.083 19.894,14.942 L 19.058,14.105 C 18.987,14.035 18.897,14 18.806,14 Z M 17.325,15.339 14,18.664 V 20 H 15.336 L 18.661,16.675 Z"/>
</svg>
